icons/refresh.svg

<svg width="24" height="24" viewBox="0 0 24 24" fill="none" xmlns="http://www.w3.org/2000/svg">
<path fill-rule="evenodd" clip-rule="evenodd" d="M12 4C9.03998 4 6.45368 5.60799 5.06996 8H8C8.55228 8 9 8.44772 9 9C9 9.55228 8.55228 10 8 10H3C2.44772 10 2 9.55228 2 9V4C2 3.44772 2.44772 3 3 3C3.55228 3 4 3.44772 4 4V5.9994C5.82396 3.57138 8.72775 2 12 2C17.148 2 21.3862 5.88912 21.939 10.8901C21.9997 11.4391 21.6039 11.9333 21.0549 11.9939C20.506 12.0546 20.0118 11.6588 19.9511 11.1099C19.5091 7.11098 16.1172 4 12 4ZM2.94505 12.0061C3.49399 11.9454 3.98819 12.3412 4.04887 12.8901C4.49093 16.889 7.88284 20 12 20C14.96 20 17.5463 18.392 18.93 16H16C15.4477 16 15 15.5523 15 15C15 14.4477 15.4477 14 16 14H21C21.5523 14 22 14.4477 22 15V20C22 20.5523 21.5523 21 21 21C20.4477 21 20 20.5523 20 20V18.0006C18.176 20.4286 15.2723 22 12 22C6.85205 22 2.61382 18.1109 2.06098 13.1099C2.0003 12.5609 2.39611 12.0667 2.94505 12.0061Z" fill="black"/>
</svg>

<svg
  width="24"
  height="24"
  viewBox="0 0 24 24"
  xmlns="http://www.w3.org/2000/svg"
>
  <path
    fill-rule="evenodd"
    clip-rule="evenodd"
    d="M12 4a7.998 7.998 0 0 0-6.93 4H8a1 1 0 0 1 0 2H3a1 1 0 0 1-1-1V4a1 1 0 0 1 2 0v2a9.984 9.984 0 0 1 8-4c5.148 0 9.386 3.89 9.939 8.89a1 1 0 1 1-1.988.22A8.001 8.001 0 0 0 12 4zm-9.055 8.006a1 1 0 0 1 1.104.884A8.001 8.001 0 0 0 18.93 16H16a1 1 0 1 1 0-2h5a1 1 0 0 1 1 1v5a1 1 0 1 1-2 0v-2a9.984 9.984 0 0 1-8 4c-5.148 0-9.386-3.89-9.939-8.89a1 1 0 0 1 .884-1.104z"
  />
</svg>
